Yaru++/actions/16/path-intersection.svg

<svg viewBox="0 0 16 16" xmlns="http://www.w3.org/2000/svg">
  <g fill="#808080">
    <path d="m9 2.03125a4.5 4.5 0 0 0 -1.3007812.3476562l.5039062.8730469a3.5 3.5 0 0 1 .796875-.2128906zm1 .0019531v1.0078125a3.5 3.5 0 0 1 .796875.2109375l.501953-.8691406a4.5 4.5 0 0 0 -1.298828-.3496094zm-3.1660156.8476563a4.5 4.5 0 0 0 -.953125.953125l.8730468.5019531a3.5 3.5 0 0 1 .5800782-.5859375zm5.3320316 0-.501954.8730468a3.5 3.5 0 0 1 .585938.5800782l.869141-.5a4.5 4.5 0 0 0 -.953125-.953125zm1.455078 1.8183594-.873047.5039062a3.5 3.5 0 0 1 .212891.796875h1.007812a4.5 4.5 0 0 0 -.347656-1.3007812zm-8.2382815.0019531a4.5 4.5 0 0 0 -.3496094 1.2988281h-.0332031v1h.0292969a4.5 4.5 0 0 0 3.9707031 3.966797v.033203h1v-.03125a4.5 4.5 0 0 0 1.300781-.347656l-.503906-.8730471a3.5 3.5 0 0 1 -.796875.2109375v-3.9589844h-3.9609375a3.5 3.5 0 0 1 .2128906-.796875zm-3.3828125 1.2988281v2h1v-1h1v-1h-1zm4.0390625 1h2.9609375v2.9589844a3.5 3.5 0 0 1 -2.9609375-2.9589844zm6.9199215 0a3.5 3.5 0 0 1 -.210937.796875l.869141.5019531a4.5 4.5 0 0 0 .349609-1.2988281zm-.71289 1.6640625a3.5 3.5 0 0 1 -.580078.5859375l.5.869141a4.5 4.5 0 0 0 .953125-.9531254zm-10.246094.3359375v1h1v-1zm0 2v1h1v-1zm7 1v1h-1v1h2v-2zm-7 1v1h1v-1zm2 0v1h1v-1zm2 0v1h1v-1z"/>
    <path d="m9 7-2.959.021c.232 1.524 1.433 2.717 2.959 2.938z"/>
  </g>
</svg>

<svg xmlns="http://www.w3.org/2000/svg" viewBox="0 0 16 16">
 <defs>
  <style id="current-color-scheme" type="text/css">
   .ColorScheme-Text { color:#808080; } .ColorScheme-Highlight { color:#1d99f3; }
  </style>
 </defs>
 <path fill="#808080" class="ColorScheme-Text" d="M 9 2.03125 A 4.5 4.5 0 0 0 7.6992188 2.3789062 L 8.203125 3.2519531 A 3.5 3.5 0 0 1 9 3.0390625 L 9 2.03125 z M 10 2.0332031 L 10 3.0410156 A 3.5 3.5 0 0 1 10.796875 3.2519531 L 11.298828 2.3828125 A 4.5 4.5 0 0 0 10 2.0332031 z M 6.8339844 2.8808594 A 4.5 4.5 0 0 0 5.8808594 3.8339844 L 6.7539062 4.3359375 A 3.5 3.5 0 0 1 7.3339844 3.75 L 6.8339844 2.8808594 z M 12.166016 2.8808594 L 11.664062 3.7539062 A 3.5 3.5 0 0 1 12.25 4.3339844 L 13.119141 3.8339844 A 4.5 4.5 0 0 0 12.166016 2.8808594 z M 13.621094 4.6992188 L 12.748047 5.203125 A 3.5 3.5 0 0 1 12.960938 6 L 13.96875 6 A 4.5 4.5 0 0 0 13.621094 4.6992188 z M 5.3828125 4.7011719 A 4.5 4.5 0 0 0 5.0332031 6 L 5 6 L 5 7 L 5.0292969 7 A 4.5 4.5 0 0 0 9 10.966797 L 9 11 L 10 11 L 10 10.96875 A 4.5 4.5 0 0 0 11.300781 10.621094 L 10.796875 9.7480469 A 3.5 3.5 0 0 1 10 9.9589844 L 10 6 L 6.0390625 6 A 3.5 3.5 0 0 1 6.2519531 5.203125 L 5.3828125 4.7011719 z M 2 6 L 2 8 L 3 8 L 3 7 L 4 7 L 4 6 L 3 6 L 2 6 z M 6.0390625 7 L 9 7 L 9 9.9589844 A 3.5 3.5 0 0 1 6.0390625 7 z M 12.958984 7 A 3.5 3.5 0 0 1 12.748047 7.796875 L 13.617188 8.2988281 A 4.5 4.5 0 0 0 13.966797 7 L 12.958984 7 z M 12.246094 8.6640625 A 3.5 3.5 0 0 1 11.666016 9.25 L 12.166016 10.119141 A 4.5 4.5 0 0 0 13.119141 9.1660156 L 12.246094 8.6640625 z M 2 9 L 2 10 L 3 10 L 3 9 L 2 9 z M 2 11 L 2 12 L 3 12 L 3 11 L 2 11 z M 9 12 L 9 13 L 8 13 L 8 14 L 10 14 L 10 12 L 9 12 z M 2 13 L 2 14 L 3 14 L 3 13 L 2 13 z M 4 13 L 4 14 L 5 14 L 5 13 L 4 13 z M 6 13 L 6 14 L 7 14 L 7 13 L 6 13 z"/>
 <path fill="#808080" class="ColorScheme-Highlight" d="M 9,7 6.041,7.021 C 6.273,8.545 7.474,9.738 9,9.959 Z"/>
</svg>
